assets/icons/speaker.svg

<svg xml:space="preserve" fill="#ebebeb" style="fill-rule:evenodd;clip-rule:evenodd;stroke-linejoin:round;stroke-miterlimit:2" viewBox="0 0 280 276" xmlns="http://www.w3.org/2000/svg"><path d="M5745 3521c-22-10-48-28-58-39-47-52-46-39-47-1082 0-665 4-997 11-1023 14-51 72-114 118-127 24-8 308-10 877-8l841 3 37 29c21 16 47 47 57 70 18 39 19 86 19 1050 0 987 0 1011-20 1050-11 23-36 52-57 66l-37 25-850 2c-809 3-853 2-891-16m1709-137c9-24 7-1967-2-1982-7-10-179-12-828-10l-819 3-3 989c-1 722 1 992 9 1002 10 12 152 14 824 14 732 0 813-2 819-16" style="fill:#fff;fill-rule:nonzero" transform="matrix(.1 0 0 -.1 -513 377)"/><path d="M6495 3202c-68-33-127-92-158-161-16-35-22-66-22-126s6-91 22-126c30-67 86-124 151-156 75-36 192-39 262-6 68 31 125 87 157 151 37 75 40 191 7 263-54 116-165 189-289 189-56 0-82-6-130-28m219-140c88-51 107-172 40-252-36-42-75-60-131-60-150 0-225 169-125 281 52 58 147 71 216 31m-211-567c-247-67-408-301-373-544 5-38 17-89 27-113 59-153 204-276 360-308 77-16 205-8 276 18 127 46 248 163 299 290 19 48 23 75 23 177 0 105-3 127-25 175-105 239-352 368-587 305m248-158c142-59 221-173 221-322 1-136-75-257-197-315-73-34-200-40-276-11-186 71-278 286-196 463 42 93 114 158 215 194 60 21 168 17 233-9" style="fill:#fff;fill-rule:nonzero" transform="matrix(.1 0 0 -.1 -513 377)"/><path d="M6555 2195c-22-8-55-31-73-51-135-156 35-381 224-295 154 70 138 293-25 349-44 15-76 15-126-3" style="fill:#fff;fill-rule:nonzero" transform="matrix(.1 0 0 -.1 -513 377)"/></svg>

<?xml version="1.0" encoding="UTF-8" standalone="no"?>
<!DOCTYPE svg PUBLIC "-//W3C//DTD SVG 1.1//EN" "http://www.w3.org/Graphics/SVG/1.1/DTD/svg11.dtd">
<svg width="100%" height="100%" viewBox="0 0 280 276" version="1.1" xmlns="http://www.w3.org/2000/svg" xmlns:xlink="http://www.w3.org/1999/xlink" xml:space="preserve" xmlns:serif="http://www.serif.com/" style="fill-rule:evenodd;clip-rule:evenodd;stroke-linejoin:round;stroke-miterlimit:2;">
    <g transform="matrix(0.1,0,0,-0.1,-513,377)">
        <g>
            <path d="M5745,3521C5723,3511 5697,3493 5687,3482C5640,3430 5641,3443 5640,2400C5640,1735 5644,1403 5651,1377C5665,1326 5723,1263 5769,1250C5793,1242 6077,1240 6646,1242L7487,1245L7524,1274C7545,1290 7571,1321 7581,1344C7599,1383 7600,1430 7600,2394C7600,3381 7600,3405 7580,3444C7569,3467 7544,3496 7523,3510L7486,3535L6636,3537C5827,3540 5783,3539 5745,3521ZM7454,3384C7463,3360 7461,1417 7452,1402C7445,1392 7273,1390 6624,1392L5805,1395L5802,2384C5801,3106 5803,3376 5811,3386C5821,3398 5963,3400 6635,3400C7367,3400 7448,3398 7454,3384Z" style="fill:white;fill-rule:nonzero;"/>
            <path d="M6495,3202C6427,3169 6368,3110 6337,3041C6321,3006 6315,2975 6315,2915C6315,2855 6321,2824 6337,2789C6367,2722 6423,2665 6488,2633C6563,2597 6680,2594 6750,2627C6818,2658 6875,2714 6907,2778C6944,2853 6947,2969 6914,3041C6860,3157 6749,3230 6625,3230C6569,3230 6543,3224 6495,3202ZM6714,3062C6802,3011 6821,2890 6754,2810C6718,2768 6679,2750 6623,2750C6473,2750 6398,2919 6498,3031C6550,3089 6645,3102 6714,3062Z" style="fill:white;fill-rule:nonzero;"/>
            <path d="M6503,2495C6256,2428 6095,2194 6130,1951C6135,1913 6147,1862 6157,1838C6216,1685 6361,1562 6517,1530C6594,1514 6722,1522 6793,1548C6920,1594 7041,1711 7092,1838C7111,1886 7115,1913 7115,2015C7115,2120 7112,2142 7090,2190C6985,2429 6738,2558 6503,2495ZM6751,2337C6893,2278 6972,2164 6972,2015C6973,1879 6897,1758 6775,1700C6702,1666 6575,1660 6499,1689C6313,1760 6221,1975 6303,2152C6345,2245 6417,2310 6518,2346C6578,2367 6686,2363 6751,2337Z" style="fill:white;fill-rule:nonzero;"/>
            <path d="M6555,2195C6533,2187 6500,2164 6482,2144C6347,1988 6517,1763 6706,1849C6860,1919 6844,2142 6681,2198C6637,2213 6605,2213 6555,2195Z" style="fill:white;fill-rule:nonzero;"/>
        </g>
    </g>
</svg>
